prototype/04-socket-without-vite/public/assets/img/emotion_divider.svg

<svg width="391" height="16" viewBox="0 0 391 16" fill="none" xmlns="http://www.w3.org/2000/svg">
<path d="M174.077 3.48603C163.208 1.56104 109.954 2.7223 92.3035 2.72225C81.8842 2.72222 38.8377 -0.40566 0.427246 0.262569V10.2918C5.00931 10.7104 9.29538 11.2663 13.0162 11.5483C25.426 12.4886 85.8047 10.1994 90.177 12.4886C91.9708 13.4277 212.159 17.9329 225.609 13.7395C238.882 9.60112 321.049 11.7926 333.113 13.7395C338.052 14.5367 367.526 14.5272 390.427 14.4835V4.65394C374.346 5.02181 352.853 5.75606 335.495 3.48603C304.164 -0.611133 249.741 4.90746 234.981 3.48607C216.531 1.70934 196.75 7.5016 174.077 3.48603Z" fill="#FAFAFA"/>
</svg>

<svg fill="none" viewBox="0 0 391 16" xmlns="http://www.w3.org/2000/svg">
<path d="m174.08 3.486c-10.869-1.925-64.123-0.76373-81.774-0.76378-10.419-3e-5 -53.466-3.1279-91.876-2.4597v10.029c4.5821 0.4186 8.8681 0.9745 12.589 1.2565 12.41 0.9403 72.788-1.3489 77.161 0.9403 1.7938 0.9391 121.98 5.4443 135.43 1.2509 13.273-4.1384 95.44-1.9469 107.5 0 4.939 0.7972 34.413 0.7877 57.314 0.744v-9.8296c-16.081 0.36787-37.574 1.1021-54.932-1.1679-31.331-4.0972-85.754 1.4214-100.51 4e-5 -18.45-1.7767-38.231 4.0155-60.904-4e-5z" fill="#FAFAFA"/>
</svg>
